X:2
T: ALS ICH AUF MEINER BLEICHE
N: F0014
O: Europa, Mitteleuropa, Deutschland
R: erzaehlendes Volks - Lied, Ballade? Gefangenschaft, Flucht
M: 4/4
L: 1/8
K: A
E2 | A2c2c2B2 | B2A2A2
A2 | B3cdBAG | A2z4
E2 | A2c2c2B2 | B2A2A2
A2 | B3cdBAG | A2z4
c2 | B2e2^d2c2 | c2B2B2
A2 | G3cBAGF | E2z4
e2 | e2^d2d2=d2 | d2c2c2
A2 | B3cdBAG | A2z4

@@@ Tune index: 5433
